svg/Pictogram/pictograms-nps-litter_receptacle.svg

<svg xmlns="http://www.w3.org/2000/svg" width="123.55" height="123.54" viewBox="-0.258 -0.548 123.547 123.539" enable-background="new -0.258 -0.548 123.547 123.539"><path d="m109.65 123.09c8.148 0 14.742-6.594 14.742-14.75v-94.03c0-8.133-6.594-14.75-14.742-14.75h-94.04c-8.156 0-14.758 6.617-14.758 14.75v94.03c0 8.156 6.602 14.75 14.758 14.75h94.04"/><path d="m15.609 2.059c-6.758 0-12.258 5.492-12.258 12.25v94.03c0 6.766 5.5 12.258 12.258 12.258h94.04c6.75 0 12.25-5.492 12.25-12.258v-94.03c0-6.758-5.5-12.25-12.25-12.25h-94.04"/><g fill="#fff"><path d="m85.31 27.637c4.781 0 8.688-3.688 8.688-8.242s-3.906-8.266-8.688-8.266c-4.812 0-8.695 3.711-8.695 8.266s3.882 8.242 8.695 8.242"/><path d="m34.969 78.41h6.336v6.352h-6.336z"/><path d="m44.664 69.941l-4.634-4.631-4.624 4.631 4.624 4.609z"/><path d="m40.547 59.13l-4.625-4.62-4.622 4.62 4.622 4.616z"/><path d="m50.961 112.74l7.851-41.76h-5.898l-6.884 35.92h-15.186l-6.744-35.9h-5.9l7.714 41.74z"/><path d="m60.984 47.957h-13.06c-5.18 0-5.18 6.484 0 6.484l14.945-.023c1.102 0 2.25-.562 3.125-1.883l7.492-11.25v66.859c0 2.562 2.18 4.641 4.859 4.641 2.688 0 4.883-2.078 4.883-4.641v-38.789h4.492v38.789c0 2.562 2.172 4.641 4.859 4.641s4.859-2.078 4.859-4.641l.023-66.859h4.469v24.656c0 4.953 6.812 4.953 6.789 0v-25.16c0-5.484-5.711-10.883-12.453-10.883h-17.287c-3.875 0-7.297 1.906-9.273 4.812l-8.72 13.243"/></g></svg>

<?xml version="1.0" encoding="iso-8859-1"?>
<!-- Generator: Adobe Illustrator 13.0.2, SVG Export Plug-In . SVG Version: 6.00 Build 14948)  -->
<!DOCTYPE svg PUBLIC "-//W3C//DTD SVG 1.1//EN" "http://www.w3.org/Graphics/SVG/1.1/DTD/svg11.dtd">
<svg version="1.1" id="Layer_1" xmlns="http://www.w3.org/2000/svg" xmlns:xlink="http://www.w3.org/1999/xlink" x="0px" y="0px"
	 width="123.547px" height="123.539px" viewBox="-0.258 -0.548 123.547 123.539"
	 style="enable-background:new -0.258 -0.548 123.547 123.539;" xml:space="preserve">
<g>
	<path style="fill:#000000;" d="M109.648,123.09c8.148,0,14.742-6.594,14.742-14.75V14.309c0-8.133-6.594-14.75-14.742-14.75H15.609
		c-8.156,0-14.758,6.617-14.758,14.75v94.031c0,8.156,6.602,14.75,14.758,14.75H109.648z"/>
	<path d="M15.609,2.059c-6.758,0-12.258,5.492-12.258,12.25v94.031c0,6.766,5.5,12.258,12.258,12.258h94.039
		c6.75,0,12.25-5.492,12.25-12.258V14.309c0-6.758-5.5-12.25-12.25-12.25H15.609z"/>
	<path style="fill:#FFFFFF;" d="M85.305,27.637c4.781,0,8.688-3.688,8.688-8.242s-3.906-8.266-8.688-8.266
		c-4.812,0-8.695,3.711-8.695,8.266S80.492,27.637,85.305,27.637z"/>
	<rect x="34.969" y="78.41" style="fill:#FFFFFF;" width="6.336" height="6.352"/>
	<polygon style="fill:#FFFFFF;" points="44.664,69.941 40.031,65.309 35.406,69.941 40.031,74.551 	"/>
	<polygon style="fill:#FFFFFF;" points="40.547,59.129 35.922,54.512 31.305,59.129 35.922,63.746 	"/>
	<polygon style="fill:#FFFFFF;" points="50.961,112.738 58.812,70.98 52.914,70.98 46.031,106.902 30.844,106.902 24.102,71.004 
		18.195,71.004 25.914,112.738 	"/>
	<path style="fill:#FFFFFF;" d="M60.984,47.957H47.922c-5.18,0-5.18,6.484,0,6.484l14.945-0.023c1.102,0,2.25-0.562,3.125-1.883
		l7.492-11.25v66.859c0,2.562,2.18,4.641,4.859,4.641c2.688,0,4.883-2.078,4.883-4.641V69.355h4.492v38.789
		c0,2.562,2.172,4.641,4.859,4.641s4.859-2.078,4.859-4.641l0.023-66.859h4.469v24.656c0,4.953,6.812,4.953,6.789,0V40.785
		c0-5.484-5.711-10.883-12.453-10.883H78.977c-3.875,0-7.297,1.906-9.273,4.812L60.984,47.957z"/>
</g>
</svg>
